Default.style/museum.svg

<svg width="30" height="30" xmlns="http://www.w3.org/2000/svg"><path d="M0 30v-4h30v4H0Zm23-18v-1h5v1h-1v11h1v2h-5v-2h1V12h-1Zm-7 0v-1h5v1h-1v11h1v2h-5v-2h1V12h-1Zm-7 0v-1h5v1h-1v11h1v2H9v-2h1V12H9Zm-7 0v-1h5v1H6v11h1v2H2v-2h1V12H2ZM0 8l15-8 15 8v2H0V8Z" fill="#888" fill-rule="evenodd"/></svg>

<?xml version="1.0" encoding="UTF-8" standalone="no"?>
<svg width="30px" height="30px" viewBox="0 0 30 30" version="1.1" xmlns="http://www.w3.org/2000/svg" xmlns:xlink="http://www.w3.org/1999/xlink" xmlns:sketch="http://www.bohemiancoding.com/sketch/ns">
    <!-- Generator: Sketch 3.2.2 (9983) - http://www.bohemiancoding.com/sketch -->
    <title>museum</title>
    <desc>Created with Sketch.</desc>
    <defs></defs>
    <g id="p" stroke="none" stroke-width="1" fill="none" fill-rule="evenodd" sketch:type="MSPage">
        <g id="museum" sketch:type="MSLayerGroup" fill="#888888">
            <path d="M0,30 L0,26 L30,26 L30,30 L0,30 L0,30 Z M23,12 L23,11 L24,11 L27,11 L28,11 L28,12 L27,12 L27,23 L28,23 L28,25 L23,25 L23,23 L24,23 L24,12 L23,12 L23,12 Z M16,12 L16,11 L17,11 L20,11 L21,11 L21,12 L20,12 L20,23 L21,23 L21,25 L16,25 L16,23 L17,23 L17,12 L16,12 L16,12 Z M9,12 L9,11 L10,11 L13,11 L14,11 L14,12 L13,12 L13,23 L14,23 L14,25 L9,25 L9,23 L10,23 L10,12 L9,12 L9,12 Z M2,12 L2,11 L3,11 L6,11 L7,11 L7,12 L6,12 L6,23 L7,23 L7,25 L2,25 L2,23 L3,23 L3,12 L2,12 L2,12 Z M0,8 L15,0 L30,8 L30,10 L0,10 L0,8 L0,8 Z" id="Shape" sketch:type="MSShapeGroup"></path>
        </g>
    </g>
</svg>
